!!!OTL: ES SPIELT EIN HERR MIT SEINER MAGD
!!!ARE: Europa, Mitteleuropa, Deutschland; Oesterreich, Boehmen
!!!SCT: E0110E
!!!YEM: Copyright 1995, estate of Helmut Schaffrath.
**kern
*ICvox
*Ivox
*M2/4
*k[b-e-]
*B-:
{16b-
16cc
=1
8dd
8b-
8b-
8dd
=2
8cc
8a
8a}
{8cc
=3
8g
8a
16cc
16b-
16a
16g
=4
4g
8f}
{16f
16f
=5
8g
8e-
8e-
16g
16g
=6
8f
8d
8d}
{8f
=7
8g
8a
8cc
8a
=8
4cc
8b-}
==
!!!AGN: erzaehlendes Volks - Lied, Sage, Liebe, Leid, Tod, Ballade ?
!!!ONB: ESAC (Essen Associative Code) Database: ERK1
!!!AMT: simple duple
!!!AIN: vox
!!!EED: Helmut Schaffrath
!!!EEV: 1.0
*-
